X:1
T:Happy and Free
T:Happy and Free
T:Charles Albert Brock
T:Millard H. Smith, 1913
T:Public Domain Courtesy of the Cyber Hymnal™
T:Public Domain Courtesy of the Cyber Hymnal™
C:Charles Albert Brock
Z:Public Domain
Z:Courtesy of the Cyber Hymnal™
%%score ( 1 2 ) ( 3 4 )
L:1/8
Q:1/4=90
M:4/4
K:A
V:1 treble 
V:2 treble 
V:3 bass 
V:4 bass 
V:1
 [CE][DF] | [EA][EA][EA][EA] [EA][EA] (3[FA][FA][FA] | [Ec]6 (3([Ec][^D^B])[Ec] | %3
w: 1.~We have|loved ones safe in glo- ry, Hap- py and|free, Sing- * ing|
w: 2.~They are|dwell- ing o- ver yon- der, Hap- py and|free, ’Mid * the|
w: 3.~Some bright|day we’ll go and meet them, Hap- py and|free, At * the|
 [CA][CA][CA][CA] [CA][CA] (3[Ec][DB][CA] | [DB]6 [CE][DF] | [EA][EA][EA][EA] [EA]2 [EA][EB] | %6
w: sweet re- demp- tion’s sto- ry, Hap- py and|free. Long a-|go they left us here, Jour- neyed|
w: won- drous heav’n- ly splen- dor, Hap- py and|free. On the|bright, un- chang- ing shore, They shall|
w: heav’n- ly por- tals greet them, Hap- py and|free. When we|at the ri- ver stand, Oh! to|
 [Ac][Ac]A[AB] [Ac]2 A[Ac] | [Ae][Ae][Ae][Ae] [Ae]2 (3[Ac][EA][EB] | A6 E2 || %9
w: to that land so fair, And they’re|wait- ing for us there, Hap- py and|free. *|
w: sor- row ne- ver- more, With the|Sav- ior they a- dore, Hap- py and|free. Hap-|
w: clasp our Sav- ior’s hand, And be|wel- comed to that land, Hap- py and|free. *|
"^Refrain" (3[CE][CE][CE] | [CA]4- [CA][CA] (3[CA][CA][CA] | [Ec]6 (3[Ec][^D^B][Ec] | %12
w: |||
w: * py and|free, * so hap- py and|free, Pre- cious ones|
w: |||
 [FA]6 (3[Ac][GB][FA] | B6 [CE][DF] | [EA][EA][EA][EA] [EA] [EA]2 [EA][EB] | %15
w: |||
w: dwell o- ver the|sea, And they’re|wait- ing for us, we know Where the|
w: |||
 [Ac][Ac]A[AB] [Ac]2 (3ccc | (z2 [Ae])[Ac] (3[Ac][EA][EB] x | A4- [EA]2 |] %18
w: |||
w: crys- tal wa- ters flow, Hap- py and|* free, so hap- py||
w: |||
V:2
 x2 | x8 | x8 | x8 | x8 | x8 | x2 A x2 A x2 | x8 | E2 (3FFF x4 || x2 | x8 | x8 | x8 | %13
 (G>G(3FFF G2) x2 | x9 | x2 A x5 | e4 A A A | E>E (3FFF x2 |] %18
V:3
 [A,,A,][A,,A,] | [A,,C][A,,C][A,,C][A,,C] [A,,C][A,,C] z2 | %2
w: ~ ~|~ ~ ~ ~ ~ ~|
 z2 (3[A,,A,][A,,A,][A,,A,] [A,,A,]2 (3:2:2[A,,A,]2 [A,,A,] | %3
w: Hap- py and free, ~ ~|
 [A,,E,][A,,E,][A,,E,][A,,E,] [A,,E,][A,,E,] z2 | z2 (3[E,G,][E,G,][E,G,] [E,G,]2 [A,,A,][A,,A,] | %5
w: ~ ~ ~ ~ ~ ~|Hap- py and free, ~ ~|
 [A,,C][A,,C][A,,C][A,,C] [A,,C]2 [A,C][A,D] | [A,E][A,E][A,C][A,D] [A,E]2 [A,C][A,E] | %7
w: ~ ~ ~ ~ ~ ~ ~|~ ~ ~ ~ ~ ~ ~|
 [A,C][A,C][A,C][A,C] [A,C]2 (3[E,E][E,C][E,D] | C2 C2 x4 || z2 | %10
w: ~ ~ ~ ~ ~ ~ ~ ~|~ Hap-||
 z2 (3[A,,E,][A,,E,][A,,E,] [A,,E,]2 z2 | z [A,,A,] (3[A,,A,][A,,A,][A,,A,] [A,,A,]2 z2 | %12
w: py and free. Hap-|py and free, so hap-|
 z2 (3[D,D][D,D][D,D] [F,C]2 (3[B,,^D][B,,D][B,,D] | %13
w: py and free Pre- cious ones dwell,|
 [E,E]>[E,E] (3[B,,^D][B,,D][B,,D] [E,E]2 [A,,A,][A,,A,] | %14
w: ~ ~ ~ ~ dwell o- ver the|
 [A,,C][A,,C][A,,C][A,,C] [A,,C] [A,,C]2 [A,C][A,D] | [A,E][A,E][A,C][A,D] [A,E]2 (3EEE | %16
w: sea, ~ ~ ~ ~ ~ ~ ~|~ ~ ~ ~ ~ ~ ~ ~|
 z2 [A,C][E,E] (3[E,E][E,C][E,D] x | C3/2(3:2:1D [A,,C]2 x11/6 |] %18
w: ~ ~ ~ Hap- py|* and ~|
V:4
 x2 | x8 | x8 | x8 | x8 | x8 | x8 | x8 | A,,6 (3DDD || x2 | x8 | x8 | x8 | x8 | x9 | x8 | %16
 C4- A, A, A, | A,,4 C/(3:2:2DD x/6 |] %18

